packages/kaspersky-hexa-ui-icons/src/iconsSVGs/16x12/FlagKp.svg

<svg width="16" height="12" viewBox="0 0 16 12" fill="none" xmlns="http://www.w3.org/2000/svg">
<g clip-path="url(#clip0_41816_2957)">
<rect width="16" height="12" rx="2" fill="white"/>
<mask id="mask0_41816_2957" style="mask-type:luminance" maskUnits="userSpaceOnUse" x="0" y="0" width="16" height="12">
<rect width="16" height="12" rx="2" fill="white"/>
</mask>
<g mask="url(#mask0_41816_2957)">
<path fill-rule="evenodd" clip-rule="evenodd" d="M0 2.4H16V0H0V2.4Z" fill="#1461B6"/>
<path fill-rule="evenodd" clip-rule="evenodd" d="M0 12H16V9.60001H0V12Z" fill="#1461B6"/>
<path fill-rule="evenodd" clip-rule="evenodd" d="M0 9.59999H16V2.39999H0V9.59999Z" fill="white"/>
<path fill-rule="evenodd" clip-rule="evenodd" d="M0 8.8H16V3.2H0V8.8Z" fill="#F53846"/>
<path d="M6.83167 7.53906C6.51751 7.76761 6.13267 7.90522 5.71448 7.90527C5.29577 7.90527 4.90972 7.76808 4.59534 7.53906L5.71448 6.76465L6.83167 7.53906ZM5.26526 5.38184L3.90295 5.41113L4.98694 6.23633L4.59436 7.53906C4.11924 7.19266 3.8092 6.63305 3.8092 6C3.80923 4.94792 4.66252 4.09473 5.71448 4.09473L5.26526 5.38184ZM5.90881 4.10449C6.86939 4.20194 7.61875 5.0136 7.61877 6C7.61877 6.63349 7.30831 7.19271 6.83264 7.53906L6.44104 6.23633L7.526 5.41113L6.1637 5.38184L5.71448 4.09473L5.90881 4.10449Z" fill="white"/>
</g>
</g>
<defs>
<clipPath id="clip0_41816_2957">
<rect width="16" height="12" fill="white"/>
</clipPath>
</defs>
</svg>

<svg xmlns="http://www.w3.org/2000/svg" width="16" height="12" fill="none" viewBox="0 0 16 12"><g clip-path="url(#a)"><rect width="16" height="12" fill="#fff" rx="2"/><mask id="b" width="16" height="12" x="0" y="0" maskUnits="userSpaceOnUse" style="mask-type:luminance"><rect width="16" height="12" fill="#fff" rx="2"/></mask><g mask="url(#b)"><path fill="#1461b6" fill-rule="evenodd" d="M0 2.4h16V0H0zM0 12h16V9.6H0z" clip-rule="evenodd"/><path fill="#fff" fill-rule="evenodd" d="M0 9.6h16V2.4H0z" clip-rule="evenodd"/><path fill="#f53846" fill-rule="evenodd" d="M0 8.8h16V3.2H0z" clip-rule="evenodd"/><path fill="#fff" d="M6.8317 7.539c-.3142.2286-.699.3662-1.1172.3663-.4187 0-.8048-.1372-1.1192-.3662l1.1192-.7745zM5.2653 5.3819l-1.3623.0293 1.084.8252-.3926 1.3028C4.1192 7.1927 3.8092 6.633 3.8092 6c0-1.052.8533-1.9053 1.9053-1.9053zm.6435-1.2773c.9606.0974 1.71.9091 1.71 1.8955 0 .6335-.3105 1.1927-.7862 1.539L6.441 6.2364l1.085-.8252-1.3623-.0293-.4492-1.287z"/></g></g><defs><clipPath id="a"><path fill="#fff" d="M0 0h16v12H0z"/></clipPath></defs></svg>
